svg/arrow-down-sm.svg

<svg width="50" height="43" viewBox="0 0 50 43" fill="none" xmlns="http://www.w3.org/2000/svg">
<path d="M2.05859 2.7155C4.63206 2.7155 6.77143 1.53301 9.46478 1.62279C12.7991 1.73393 15.1923 3.61474 18.2065 4.65811C22.1472 6.02219 26.3751 11.0669 27.1304 15.221C28.1741 20.9615 29.3765 27.2506 29.3765 33.1901C29.3765 35.1935 29.3765 37.1968 29.3765 39.2001C29.3765 40.9855 26.5928 36.9217 25.0056 36.1041C22.2542 34.6867 19.2438 31.4986 16.2639 31.1261C15.2181 30.9954 13.5971 29.1808 15.6568 31.1261C19.9128 35.1456 25.6617 38.5727 30.7727 41.3248C31.8895 41.9261 45.8525 27.7628 47.9527 25.6625" stroke="#15CE79" stroke-width="3" stroke-linecap="round"/>
</svg>

<svg xmlns="http://www.w3.org/2000/svg" width="50" height="43" fill="none"><path stroke="#15CE79" stroke-linecap="round" stroke-width="3" d="M2.059 2.716c2.573 0 4.712-1.183 7.406-1.093 3.334.11 5.727 1.992 8.741 3.035 3.941 1.364 8.17 6.409 8.924 10.563 1.044 5.74 2.247 12.03 2.247 17.97v6.01c0 1.785-2.784-2.28-4.371-3.097-2.752-1.417-5.762-4.605-8.742-4.978-1.046-.13-2.667-1.945-.607 0 4.256 4.02 10.005 7.447 15.116 10.199 1.117.601 15.08-13.562 17.18-15.663"/></svg>
